assets/awselasticcontainerregistryimage/original.svg

<svg height="48" viewBox="0 0 48 48" width="48" xmlns="http://www.w3.org/2000/svg"><path d="m20 15c1.654 0 3 1.346 3 3s-1.346 3-3 3-3-1.346-3-3 1.346-3 3-3m0 8c2.757 0 5-2.243 5-5s-2.243-5-5-5-5 2.243-5 5 2.243 5 5 5m-16 21v-9.586l8-8 15.293 15.293 1.414-1.414-7.793-7.793 11.086-11.086 12 12v10.586zm40-40v26.586l-11.293-11.293a1 1 0 0 0 -1.414 0l-11.793 11.793-6.793-6.793a1 1 0 0 0 -1.414 0l-7.293 7.293v-27.586zm1-2h-42a1 1 0 0 0 -1 1v42a1 1 0 0 0 1 1h42a1 1 0 0 0 1-1v-42a1 1 0 0 0 -1-1" fill="#ed7100" fill-rule="evenodd"/></svg>

<svg xmlns="http://www.w3.org/2000/svg" width="48" height="48" viewBox="0 0 48 48"><title>Icon-Resource/Containers/Res_Amazon-Elastic-Container-Registry_Image_48</title><g id="Icon-Resource/Containers/Res_Amazon-Elastic-Container-Registry_Image_48" fill="none" fill-rule="evenodd" stroke="none" stroke-width="1"><path id="Amazon-Elastic-Container-Registry_Image_Resource-Icon_light-bg" fill="#ed7100" d="M20 15c1.654 0 3 1.346 3 3s-1.346 3-3 3-3-1.346-3-3 1.346-3 3-3m0 8c2.757 0 5-2.243 5-5s-2.243-5-5-5-5 2.243-5 5 2.243 5 5 5M4 44v-9.586l8-8 15.293 15.293 1.414-1.414-7.793-7.793L32 21.414l12 12V44zM44 4v26.586L32.707 19.293a1 1 0 0 0-1.414 0L19.5 31.086l-6.793-6.793a1 1 0 0 0-1.414 0L4 31.586V4zm1-2H3a1 1 0 0 0-1 1v42a1 1 0 0 0 1 1h42a1 1 0 0 0 1-1V3a1 1 0 0 0-1-1"/></g></svg>
